src/main/resources/icons/JavaUltimateIcons/icons/javaee/remote@2x.svg

<svg xmlns="http://www.w3.org/2000/svg" width="16" height="16" viewBox="0 0 16 16">
  <g fill="none" fill-rule="evenodd">
    <path fill="#62B543" fill-opacity=".6" d="M14.9291115,9 L10,9 L10,14.7101226 C9.36629085,14.8987229 8.69497293,15 8,15 C4.134,15 1,11.866 1,8 C1,4.134 4.134,1 8,1 C11.866,1 15,4.134 15,8 C15,8.33952142 14.9758282,8.67339709 14.9291115,9 Z"/>
    <path fill="#9AA7B0" d="M11,16 L11,10 L13.6832001,10 C14.4400002,10 15.0334002,10.2035997 15.4204002,10.5819998 C15.7386002,10.9087998 16,11.3554001 16,11.8800001 C16,12.8862002 15.3258002,13.4801999 14.4916002,13.7209999 L16.1170002,16 L14.8614002,16 L13.3822001,14 L12,14 L12,16 L11,16 Z M12,13 L13.6058001,13 C14.3626001,13 15,12.5685998 15,11.9579998 L15,11.9407998 C15,11.2957998 14.3798001,11 13.5972001,11 L12,11 L12,13 Z"/>
    <polygon fill="#231F20" fill-opacity=".7" points="2.5 5 2.5 1 3.5 .664 3.5 0 .5 0 .5 .664 1.5 1 1.5 5 .5 5.344 .5 6 3.5 6 3.5 5.344" transform="translate(6 5)"/>
  </g>
</svg>

<svg xmlns="http://www.w3.org/2000/svg" width="16" height="16" viewBox="0 0 16 16"><rect id="frame" width="16" height="16" fill="none"/><g fill="none" fill-rule="evenodd"><path fill="#62B543" fill-opacity=".6" d="M14.93 9H10v5.71A7 7 0 1 1 14.93 9z"/><path fill="#9AA7B0" d="M11 16v-6h2.683c.757 0 1.35.204 1.737.582.319.327.58.773.58 1.298 0 1.006-.674 1.6-1.508 1.841L16.117 16h-1.256l-1.479-2H12v2h-1zm1-3h1.606c.757 0 1.394-.431 1.394-1.042v-.017c0-.645-.62-.941-1.403-.941H12v2z"/><path fill="#231F20" fill-opacity=".7" d="M8.5 10V6l1-.336V5h-3v.664L7.5 6v4l-1 .344V11h3v-.656z"/></g></svg>
